material/.icons/material/tooltip.svg

<svg xmlns="http://www.w3.org/2000/svg" viewBox="0 0 24 24"><path d="M4 2h16a2 2 0 012 2v12a2 2 0 01-2 2h-4l-4 4-4-4H4a2 2 0 01-2-2V4a2 2 0 012-2z"/></svg>

<?xml version="1.0" encoding="UTF-8"?><!DOCTYPE svg PUBLIC "-//W3C//DTD SVG 1.1//EN" "http://www.w3.org/Graphics/SVG/1.1/DTD/svg11.dtd"><svg xmlns="http://www.w3.org/2000/svg" xmlns:xlink="http://www.w3.org/1999/xlink" version="1.1" id="mdi-tooltip" width="24" height="24" viewBox="0 0 24 24"><path d="M4,2H20A2,2 0 0,1 22,4V16A2,2 0 0,1 20,18H16L12,22L8,18H4A2,2 0 0,1 2,16V4A2,2 0 0,1 4,2Z" /></svg>
